X:1
T:Title
%%score { ( 1 3 ) | ( 2 4 ) }
L:1/8
M:3/4
K:Ab
V:1 treble nm="Grand Piano"
V:3 treble 
V:2 bass 
V:4 bass 
V:1
 z2 z[Q:1/4=100] [FA] [=EG][FA] | [Fd]3 F =EF | [DB]3 E =DE | [C_G]4 [A,C]2 |[M:3/8] [A,D]3 | %5
 [FA][=EG][FA] |[M:3/4] [Fd]3 F =EF | B3 B =AB | [Gd]4 [EG]2 |[M:3/8] [CEA]3 | _GGG | %11
[M:3/4] c3 c BA | [Fd]3 F FF | B3 [Fd] [Ec][DB] |[M:7/16] F/-F/-F/-F-<F |[M:3/8] [FA][=EG][FA] | %16
[M:3/4] [Fd]3 [Af] [Af][Ae] | B3 d cB | A3 d [Ec][_Ge] |[M:3/8] [Fd]3 |] %20
V:2
 z2 z [D,D] [D,D][D,D] | [D,A,]3 [D,A,D] [D,G,D][D,A,D] | [_G,,_G,]3 [G,B,] [F,A,B,][E,G,B,] | %3
 [A,,E,]4 [A,,_G,]2 |[M:3/8] [D,F,]3 | [D,D][D,D][D,D] |[M:3/4] [D,A,]3 [D,A,D] [D,G,D][D,A,D] | %7
 [_G,D]3 [G,D_G] [G,CG][G,B,G] | [E,B,]4 [E,D]2 |[M:3/8] [A,,A,]3 | [A,CE][A,CE][A,CE] | %11
[M:3/4] [A,E_G]3 [A,EG] [A,DG][A,CG] | [D,A,]3 F, F,F, | [B,,B,]3 [B,,F,] [=A,,F,][B,,B,] | %14
[M:7/16] [B,D]-<[B,D] z/ z |[M:3/8] [D,D][D,D][D,D] |[M:3/4] [D,A,]3 [D,D] [F,D][F,D] | %17
 [_G,D_G]3 [=G,B,=E] [G,B,E][G,DE] | [A,DF]3 [A,F][K:bass] [A,,A,][A,,A,] |[M:3/8] [D,A,]3 |] %20
V:3
 x6 | x6 | x6 | x6 |[M:3/8] x3 | x3 |[M:3/4] x6 | x6 | x6 |[M:3/8] x3 | x3 |[M:3/4] x6 | x6 | x6 | %14
[M:7/16] z/ z/ z C3/2 |[M:3/8] x3 |[M:3/4] x6 | x6 | x6 |[M:3/8] x3 |] %20
V:4
 x6 | x6 | x6 | x6 |[M:3/8] x3 | x3 |[M:3/4] x6 | x6 | x6 |[M:3/8] x3 | x3 |[M:3/4] x6 | x6 | x6 | %14
[M:7/16] F,-<F,-[F,=A,]3/2 |[M:3/8] x3 |[M:3/4] x6 | x6 | x4[K:bass] x2 |[M:3/8] x3 |] %20

